X:1
T:The Rolling of the Stones (2)
M:4/4
L:1/8
K:Eb
 F2 F2 C2 CC| FG FE C3 F| F2F-E E2D-E| G6F-G| A2B-A G2A-G| F2 FGF-EC-C|\
 F2F-F G2A-G| F8|

